status/symbolic/channel-secure-symbolic.svg

<?xml version="1.0" encoding="UTF-8" standalone="no"?>
<svg
   xmlns:dc="http://purl.org/dc/elements/1.1/"
   xmlns:cc="http://creativecommons.org/ns#"
   xmlns:rdf="http://www.w3.org/1999/02/22-rdf-syntax-ns#"
   xmlns:svg="http://www.w3.org/2000/svg"
   xmlns="http://www.w3.org/2000/svg"
   width="16"
   height="16"
   viewBox="0 0 16 16"
   id="svg4351"
   version="1.1">
  <defs
     id="defs4353" />
  <metadata
     id="metadata4356">
    <rdf:RDF>
      <cc:Work
         rdf:about="">
        <dc:format>image/svg+xml</dc:format>
        <dc:type
           rdf:resource="http://purl.org/dc/dcmitype/StillImage" />
        <dc:title />
      </cc:Work>
    </rdf:RDF>
  </metadata>
  <g
     id="layer1"
     transform="translate(0,-1036.3622)">
    <path
       style="color:#bebebe;clip-rule:nonzero;display:inline;overflow:visible;visibility:visible;opacity:1;isolation:auto;mix-blend-mode:normal;color-interpolation:sRGB;color-interpolation-filters:linearRGB;solid-color:#000000;solid-opacity:1;fill:#bebebe;fill-opacity:1;fill-rule:nonzero;stroke:none;stroke-width:1;stroke-linecap:butt;stroke-linejoin:miter;stroke-miterlimit:4;stroke-dasharray:none;stroke-dashoffset:0;stroke-opacity:1;marker:none;color-rendering:auto;image-rendering:auto;shape-rendering:auto;text-rendering:auto;enable-background:accumulate;filter-blend-mode:normal;filter-gaussianBlur-deviation:0"
       d="M 8 2 C 5.784 2 4 3.784 4 6 L 4 8 L 3 8 L 3 11.691406 L 3 13.5 C 3 14.331 3.669 15 4.5 15 L 11.5 15 C 12.331 15 13 14.331 13 13.5 L 13 9.5 L 13 8 L 12 8 L 12 6 C 12 3.784 10.216 2 8 2 z M 7.9707031 4 C 9.0787031 4 9.9707031 4.892 9.9707031 6 L 9.9707031 8 L 5.9707031 8 L 5.9707031 6 C 5.9707031 4.892 6.8627031 4 7.9707031 4 z "
       transform="translate(0,1036.3622)"
       id="rect5048" />
  </g>
</svg>

<svg xmlns="http://www.w3.org/2000/svg" width="16" height="16" viewBox="0 0 16 16"><path style="isolation:auto;mix-blend-mode:normal;filter-blend-mode:normal;filter-gaussianBlur-deviation:0" d="M8 2a3.99 3.99 0 0 0-4 4v2H3v5.5c0 .83.67 1.5 1.5 1.5h7c.83 0 1.5-.67 1.5-1.5V8h-1V6c0-2.216-1.784-4-4-4zm-.03 2c1.11 0 2 .892 2 2v2h-4V6c0-1.108.893-2 2-2z" color="#bebebe" overflow="visible" fill="#bebebe"/></svg>
